korla/apps/scalable/textosaurus.svg

<svg xmlns="http://www.w3.org/2000/svg" width="48" height="48" version="1">
 <path style="opacity:0.2" d="m 24.848121,7.9618354 c -0.352274,0.00616 -0.67111,0.2100186 -0.824531,0.5271889 l -1.827832,3.7833567 -2.930646,-1.157488 c -0.645973,-0.26407 -1.34286,0.247708 -1.284224,0.943104 l 0.332001,4.267326 -3.069092,-1.293261 c -0.674263,-0.200337 -1.319654,0.388285 -1.18207,1.078093 l 0.69774,4.096698 -1.641765,-0.180594 c -0.707597,-0.07754 -1.238415,0.633233 -0.963169,1.289698 l 1.485893,3.65198 -1.93061,1.704343 -1.8470815,-3.255755 C 9.4146202,22.720183 8.3491444,22.908073 8.1662445,23.715691 L 7.4493402,27.293925 5.9991148,25.360291 c -0.5028963,-0.672397 -1.5685324,-0.391478 -1.6746,0.441452 l -0.7004862,4.448916 c -0.072613,0.559103 0.362886,1.054612 0.9266849,1.054377 l 1.4702645,0.199569 -0.041956,3.586344 c -0.0088,0.817454 0.8809268,1.251024 1.4835907,0.698662 l 4.0759233,-4.020499 27.034738,-0.464075 c 0.653332,-0.0065 1.098312,-0.664531 0.861014,-1.273279 l -2.141591,-5.501736 2.55059,-4.390809 c 0.262907,-0.535652 -0.03697,-1.177105 -0.616573,-1.318885 L 35.935505,18.112545 36.667002,14.0282 c 0.111471,-0.625188 -0.419974,-1.176967 -1.048905,-1.089038 L 32.46226,13.382438 32.010322,9.8656147 C 31.955699,9.1440466 31.136731,8.7559536 30.543678,9.1706011 L 27.858022,11.694114 25.641641,8.375925 C 25.464793,8.1119006 25.165845,7.9558979 24.848121,7.9618354 Z"/>
 <path style="opacity:0.2" d="m 18.001953,32.900443 -0.566406,4.589843 c 0,0 0.990234,0.451172 2.990234,0.451172 2,0 2.835938,-0.330078 2.835938,-0.330078 l 0.664062,-4.710937 z m 12.685547,2.099609 -0.234375,4.478516 c 0,0 0.974543,0.464118 2.871094,0.517578 2.103293,0.05929 2.884765,-0.488282 2.884765,-0.488282 l 0.564454,-4.507812 z"/>
 <path style="fill:#972b00" d="m 18.001953,31.900391 -0.566406,4.589843 c 0,0 0.990234,0.451172 2.990234,0.451172 2,0 2.835938,-0.330078 2.835938,-0.330078 l 0.664062,-4.710937 z M 30.6875,34 30.453125,38.478516 c 0,0 0.974543,0.464118 2.871094,0.517578 2.103293,0.05929 2.884765,-0.488282 2.884765,-0.488282 L 36.773438,34 Z"/>
 <path style="fill:#ff8100" d="m 24.848121,6.9617275 c -0.352274,0.00616 -0.67111,0.2100186 -0.824531,0.5271889 l -1.827832,3.7833566 -2.930646,-1.157488 c -0.645973,-0.2640695 -1.34286,0.247708 -1.284224,0.943104 l 0.332001,4.267326 -3.069092,-1.293261 c -0.674263,-0.200337 -1.319654,0.388285 -1.18207,1.078093 l 0.69774,4.096698 -1.641765,-0.180594 c -0.707597,-0.07754 -1.238415,0.633233 -0.963169,1.289698 l 1.485893,3.65198 -1.93061,1.704343 -1.8470815,-3.255755 C 9.4146202,21.720075 8.3491444,21.907965 8.1662445,22.715583 L 7.4493402,26.293817 5.9991148,24.360183 c -0.5028963,-0.672397 -1.5685324,-0.391478 -1.6746,0.441452 l -0.7004862,4.448916 c -0.072613,0.559103 0.362886,1.054612 0.9266849,1.054377 l 1.4702645,0.199569 -0.041956,3.586344 c -0.0088,0.817454 0.8809268,1.251024 1.4835907,0.698662 l 4.0759233,-4.020499 27.034738,-0.464075 c 0.653332,-0.0065 1.098312,-0.664531 0.861014,-1.273279 l -2.141591,-5.501736 2.55059,-4.390809 C 40.106194,18.603453 39.806317,17.962 39.226714,17.82022 l -3.291209,-0.707783 0.731497,-4.084345 c 0.111471,-0.625188 -0.419974,-1.176967 -1.048905,-1.089038 L 32.46226,12.38233 32.010322,8.8655068 C 31.955699,8.1439387 31.136731,7.7558457 30.543678,8.1704932 L 27.858022,10.694006 25.641641,7.3758171 C 25.464793,7.1117927 25.165845,6.95579 24.848121,6.9617275 Z"/>
 <path style="opacity:0.2;fill:#ffffff" d="M 24.847656 6.9609375 C 24.495382 6.9670975 24.176859 7.1711109 24.023438 7.4882812 L 22.195312 11.271484 L 19.265625 10.115234 C 18.619652 9.8511649 17.921833 10.363198 17.980469 11.058594 L 18.029297 11.691406 C 18.189581 11.200315 18.741401 10.900934 19.265625 11.115234 L 22.195312 12.271484 L 24.023438 8.4882812 C 24.176859 8.171111 24.495382 7.9670975 24.847656 7.9609375 C 25.16538 7.955 25.46573 8.1109756 25.642578 8.375 L 27.857422 11.693359 L 30.542969 9.1699219 C 31.136022 8.7552744 31.955143 9.1436663 32.009766 9.8652344 L 32.462891 13.382812 L 35.617188 12.939453 C 36.050042 12.878937 36.421292 13.131293 36.583984 13.492188 L 36.667969 13.027344 C 36.77944 12.402156 36.246119 11.851524 35.617188 11.939453 L 32.462891 12.382812 L 32.009766 8.8652344 C 31.955143 8.1436663 31.136022 7.7552744 30.542969 8.1699219 L 27.857422 10.693359 L 25.642578 7.375 C 25.46573 7.1109756 25.16538 6.955 24.847656 6.9609375 z M 14.994141 13.992188 C 14.420786 13.980074 13.942114 14.505793 14.0625 15.109375 L 14.134766 15.537109 C 14.320134 15.140725 14.772598 14.891145 15.244141 15.03125 L 18.3125 16.326172 L 18.232422 15.292969 L 15.244141 14.03125 C 15.159858 14.006208 15.076048 13.993918 14.994141 13.992188 z M 36.107422 17.150391 L 35.935547 18.113281 L 39.226562 18.820312 C 39.475867 18.881296 39.659929 19.044496 39.783203 19.242188 L 39.84375 19.138672 C 40.106657 18.60302 39.806166 17.962093 39.226562 17.820312 L 36.107422 17.150391 z M 13.117188 19.025391 C 12.409591 18.947851 11.879051 19.659941 12.154297 20.316406 L 12.220703 20.478516 C 12.398089 20.183916 12.727606 19.982699 13.117188 20.025391 L 14.759766 20.207031 L 14.585938 19.1875 L 13.117188 19.025391 z M 9.1777344 21.992188 C 8.7401052 21.94821 8.2803281 22.210083 8.1660156 22.714844 L 7.4492188 26.292969 L 6 24.359375 C 5.4971037 23.686978 4.4302863 23.967851 4.3242188 24.800781 L 3.625 29.25 C 3.6023508 29.424394 3.640383 29.58547 3.7050781 29.734375 L 4.3242188 25.800781 C 4.4302863 24.967851 5.4971037 24.686978 6 25.359375 L 7.4492188 27.292969 L 8.1660156 23.714844 C 8.3489155 22.907226 9.415167 22.719674 9.8632812 23.416016 L 11.708984 26.671875 L 13.640625 24.96875 L 13.341797 24.232422 L 11.708984 25.671875 L 9.8632812 22.416016 C 9.6952384 22.154887 9.4403119 22.018574 9.1777344 21.992188 z M 37.525391 24.128906 L 37.292969 24.529297 L 39.361328 29.847656 C 39.501939 29.61256 39.545096 29.317291 39.433594 29.03125 L 37.525391 24.128906 z M 6.0097656 31.501953 L 5.9785156 34.091797 C 5.9781934 34.121726 5.9882059 34.146911 5.9902344 34.175781 L 6.0214844 31.503906 L 6.0097656 31.501953 z"/>
 <path style="opacity:0.2" d="m 1,30.100026 c 0,0 5.8455523,-0.537444 10.926718,-3.855796 2.829403,-1.847796 4.046666,-5.951154 6.535206,-8.659876 0.533457,-0.580656 1.110884,-1.189697 1.72757,-1.728911 1.494226,-1.237291 3.685532,-1.825479 5.793547,-1.855693 1.820878,-0.0261 3.57961,0.364124 4.773249,1.111935 2.602476,1.767715 4.732949,4.96982 6.036062,7.843458 1.271236,2.803341 2.646697,3.332911 2.646697,3.332911 l 4.522982,2.286025 c 1.97885,1.000159 1.857239,3.552915 2.053967,4.832078 l -2.106999,0.347061 -0.470997,1.446834 c -0.07937,-0.02315 -5.869004,-0.737018 -7.841834,0.882888 -0.975303,0.01325 -2.137903,-0.08322 -4.241635,-0.08289 l -0.571989,4.565039 c 0,0 -0.7827,0.547709 -2.885993,0.488421 C 26,41.000052 25.025467,40.535691 25.025467,40.535691 l 0.309772,-5.875219 -6.761981,-1.221308 -0.739002,5.230229 c 0,0 -0.834256,0.330659 -2.834256,0.330659 -2,0 -2.990256,-0.451412 -2.990256,-0.451412 l 0.681777,-5.54446 c 0,0 -6.3494419,-0.573402 -6.693362,-0.641151 C 0.50558122,31.281049 1,30.100026 1,30.100026 Z"/>
 <path style="fill:#da4000" d="m 1,29.099974 c 0,0 5.8455523,-0.537444 10.926718,-3.855796 2.829403,-1.847796 4.046666,-5.951154 6.535206,-8.659876 0.533457,-0.580656 1.110884,-1.189697 1.72757,-1.728911 1.494226,-1.237291 3.685532,-1.825479 5.793547,-1.855693 1.820878,-0.0261 3.57961,0.364124 4.773249,1.111935 2.602476,1.767715 4.732949,4.96982 6.036062,7.843458 1.271236,2.803341 2.646697,3.332911 2.646697,3.332911 l 4.522982,2.286025 c 1.97885,1.000159 1.857239,3.552915 2.053967,4.832078 L 43.908999,32.753166 43.438002,34.2 C 43.358632,34.17685 37.568998,33.462982 35.596168,35.082888 34.620865,35.096138 33.458265,34.999667 31.354533,35 l -0.571989,4.565039 c 0,0 -0.7827,0.547709 -2.885993,0.488421 C 26,40 25.025467,39.535639 25.025467,39.535639 l 0.309772,-5.875219 -6.761981,-1.221308 -0.739002,5.230229 C 17.834256,37.669341 17,38 15,38 13,38 12.009744,37.548588 12.009744,37.548588 l 0.681777,-5.54446 c 0,0 -6.3494419,-0.573402 -6.693362,-0.641151 C 0.50558122,30.280997 1,29.099974 1,29.099974 Z"/>
 <circle style="opacity:0.2" cx="38" cy="29" r="2"/>
 <circle style="fill:#ffffff" cx="38" cy="28" r="2"/>
 <circle style="fill:#3f3f3f" cx="38" cy="28" r="1"/>
 <path style="opacity:0.2" d="M 43.183594 32.746094 A 8.1116648 3.6970129 0 0 0 35.710938 35.003906 C 37.777904 33.492021 43.359523 34.176475 43.4375 34.199219 L 43.904297 32.763672 A 8.1116648 3.6970129 0 0 0 43.183594 32.746094 z"/>
</svg>

<svg clip-rule="evenodd" fill-rule="evenodd" stroke-linejoin="round" stroke-miterlimit="2" viewBox="0 0 48 48" xmlns="http://www.w3.org/2000/svg">
 <linearGradient id="a" x2="1" gradientTransform="matrix(0 -26.799 26.799 0 27.7816 39.9007)" gradientUnits="userSpaceOnUse">
  <stop stop-color="#c01202" offset="0"/>
  <stop stop-color="#da4000" offset="1"/>
 </linearGradient>
 <g fill-rule="nonzero">
  <path d="m18.002 31.9-.566 4.59s.99.451 2.99.451 2.836-.33 2.836-.33l.664-4.711zm12.686 2.1-.235 4.479s.975.464 2.871.517c2.104.059 2.885-.488 2.885-.488l.564-4.508z" fill="#972b00"/>
  <path d="m24.848 6.962c-.352.006-.671.21-.824.527l-1.828 3.783-2.931-1.157c-.646-.264-1.343.247-1.284.943l.332 4.267-3.069-1.293c-.674-.2-1.32.388-1.182 1.078l.697 4.097-1.641-.181c-.708-.077-1.239.633-.963 1.29l1.485 3.652-1.93 1.704-1.847-3.256c-.448-.696-1.514-.508-1.697.3l-.717 3.578-1.45-1.934c-.503-.672-1.568-.391-1.674.442l-.701 4.449c-.073.559.363 1.054.927 1.054l1.47.199-.042 3.587c-.009.817.881 1.251 1.484.699l4.076-4.021 27.034-.464c.654-.007 1.099-.665.861-1.273l-2.141-5.502 2.55-4.391c.263-.536-.037-1.177-.616-1.319l-3.291-.708.731-4.084c.111-.625-.42-1.177-1.049-1.089l-3.156.443-.452-3.516c-.054-.722-.873-1.11-1.466-.696l-2.686 2.524-2.216-3.318c-.177-.264-.476-.42-.794-.414z" fill="#ff8100"/>
  <path d="m1 29.1s5.846-.537 10.927-3.856c2.829-1.848 4.046-5.951 6.535-8.66.533-.58 1.111-1.189 1.727-1.729 1.495-1.237 3.686-1.825 5.794-1.855 1.821-.026 3.58.364 4.773 1.112 2.603 1.767 4.733 4.969 6.036 7.843 1.272 2.803 2.647 3.333 2.647 3.333l4.523 2.286c1.979 1 1.857 3.553 2.054 4.832l-2.107.347-.471 1.447c-.079-.023-5.869-.737-7.842.883-.975.013-2.138-.083-4.241-.083l-.572 4.565s-.783.548-2.886.488c-1.897-.053-2.872-.517-2.872-.517l.31-5.876-6.762-1.221-.739 5.23s-.834.331-2.834.331-2.99-.451-2.99-.451l.682-5.545s-6.35-.573-6.694-.641c-5.492-1.082-4.998-2.263-4.998-2.263z" fill="url(#a)"/>
 </g>
 <circle cx="38" cy="28" r="2" fill="#fff"/>
 <circle cx="38" cy="28" r="1" fill="#3f3f3f"/>
</svg>
